app/assets/images/Contenido/Imágen.svg

<svg fill="none" height="97" viewBox="0 0 97 97" width="97" xmlns="http://www.w3.org/2000/svg"><circle cx="48.5" cy="48.5" fill="#d9d9d9" r="48.5"/><path clip-rule="evenodd" d="m11.3174 79.641v-3.7962c0-12.164 9.993-22.0329 22.31-22.0329h1.6074c4.0475 1.9126 8.5018 3.0601 13.2659 3.0601s9.2377-1.1475 13.2659-3.0601h1.6074c12.317 0 22.3101 9.8689 22.3101 22.0329v3.7962c-8.8968 10.6118-22.2522 17.359-37.1834 17.359s-28.2865-6.7472-37.1833-17.359zm58.8736-53.3702c0 11.8389-9.7025 21.4209-21.6903 21.4209-11.9877 0-21.6903-9.582-21.6903-21.4209 0-11.8388 9.7026-21.42079 21.6903-21.42079 11.9878 0 21.6903 9.58199 21.6903 21.42079z" fill="#666" fill-rule="evenodd"/></svg>

<svg width="97" height="97" viewBox="0 0 97 97" fill="none" xmlns="http://www.w3.org/2000/svg">
<circle cx="48.5" cy="48.5" r="48.5" fill="#D9D9D9"/>
<path fill-rule="evenodd" clip-rule="evenodd" d="M11.3174 79.641V75.8448C11.3174 63.6808 21.3104 53.8119 33.6274 53.8119H35.2348C39.2823 55.7245 43.7366 56.872 48.5007 56.872C53.2648 56.872 57.7384 55.7245 61.7666 53.8119H63.374C75.691 53.8119 85.6841 63.6808 85.6841 75.8448V79.641C76.7873 90.2528 63.4319 97 48.5007 97C33.5695 97 20.2142 90.2528 11.3174 79.641ZM70.191 26.2708C70.191 38.1097 60.4885 47.6917 48.5007 47.6917C36.513 47.6917 26.8104 38.1097 26.8104 26.2708C26.8104 14.432 36.513 4.85001 48.5007 4.85001C60.4885 4.85001 70.191 14.432 70.191 26.2708Z" fill="#666666"/>
</svg>
